X:3596
T:Cuando canten nel árbol (CT 490)
C:Tradicional
S:Música Tradicional Asturiana, (C) Tello & Tito. Asturies, 2001.
S:http://pagina.de/MusTradAst <telloytito@asturies.org>
N:Canción de empleo indeterminado, transcrita en Uviéu.
N:Tanto ésta como la número CT 489, podrían muy bien ser canciones cultas popularizadas, a juzgar por ciertos giros melódicos de difícil entonación por la disposición de sus intervalos, y por el carácter de sus respectivas poesías.
N:Sin embarg, han sido corrientes en la parte central de Asturies hace varios años, razón por la cual las incluímos en este Cancionero como de pertenencia popular.
O:Uviéu
A:Asturies
Z:Cancioneru de Torner 490
M:3/4
L:1/8
Q:1/4=96
W:Cuando canten nel árbol
W:les paxarines,
W:ye que lloren cantando
W:les sos penines.
W:
W:Dexa, dexa que canten
W:les paxarines,
W:que tamién tienen penes
W:les probitines.
K:G
|G2 GG Bd|g2 gf d=f|(_e3/2=f/4e/4) d2 z2 :|
|G2 GG Bd|c2 BB AB|(A3/2B/4A/4) G2 ||


